;FLAVOR:Marlin
;TIME:2267
;Filament used: 1.30947m
;Layer height: 0.16
;MINX:74.573
;MINY:81.569
;MINZ:0.2
;MAXX:145.426
;MAXY:138.435
;MAXZ:7.88
;Generated with Creality Slicer 4.8.2-216
M140 S65
M105
M190 S65
M104 S210
M105
M109 S210
M82 ;absolute extrusion mode

G28 ;Home

G92 E0 ;Reset Extruder
G1 Z2.0 F3000 ;Move Z Axis up
G1 X10.1 Y20 Z0.28 F5000.0 ;Move to start position
G1 X10.1 Y200.0 Z0.28 F1500.0 E15 ;Draw the first line
G1 X10.4 Y200.0 Z0.28 F5000.0 ;Move to side a little
G1 X10.4 Y20 Z0.28 F1500.0 E30 ;Draw the second line
G92 E0 ;Reset Extruder
G1 Z2.0 F3000 ;Move Z Axis up

G92 E0
G92 E0
G1 F2700 E-8
;LAYER_COUNT:49
;LAYER:0
M107
G0 F6000 X83.606 Y86.5 Z0.2
;TYPE:SKIRT
G1 F2700 E0
G1 F1200 X84.3 Y85.843 E0.03179
G1 X84.589 Y85.578 E0.04483
G1 X85.01 Y85.207 E0.06349
G1 X85.256 Y84.997 E0.07425
G1 X85.975 Y84.4 E0.10533
G1 X86.238 Y84.188 E0.11657
G1 X86.465 Y84.011 E0.12614
G1 X87.229 Y83.467 E0.15734
G1 X88.036 Y82.989 E0.18853
G1 X88.677 Y82.672 E0.21232
G1 X88.886 Y82.577 E0.21995
G1 X89.756 Y82.226 E0.25115
G1 X90.652 Y81.95 E0.28234
G1 X91.569 Y81.751 E0.31355
G1 X92.499 Y81.631 E0.34473
G1 X93.872 Y81.6 E0.39041
G1 X94.1 Y81.609 E0.398
G1 X95.267 Y81.717 E0.43698
G1 X96.44 Y81.891 E0.47642
G1 X96.916 Y81.969 E0.49247
G1 X99.369 Y82.297 E0.57478
G1 X101.908 Y82.565 E0.6597
G1 X104.417 Y82.757 E0.74339
G1 X106.915 Y82.878 E0.82657
G1 X109.433 Y82.928 E0.91034
G1 X111.961 Y82.907 E0.99442
G1 X114.474 Y82.816 E1.07806
G1 X117.005 Y82.651 E1.16242
G1 X119.491 Y82.418 E1.24547
G1 X121.981 Y82.115 E1.32889
G1 X123.486 Y81.889 E1.37951
G1 X123.662 Y81.87 E1.3854
G1 X124.811 Y81.694 E1.42406
G1 X125.744 Y81.592 E1.45528
G1 X126.681 Y81.569 E1.48645
G1 X127.617 Y81.626 E1.51764
G1 X128.545 Y81.763 E1.54884
G1 X129.458 Y81.978 E1.58004
G1 X130.106 Y82.182 E1.60263
G1 X130.398 Y82.284 E1.61292
G1 X131.269 Y82.631 E1.6441
G1 X132.108 Y83.051 E1.67531
G1 X132.908 Y83.54 E1.7065
G1 X133.386 Y83.881 E1.72603
G1 X133.56 Y84.012 E1.73327
G1 X133.966 Y84.333 E1.75048
G1 X134.681 Y84.926 E1.78138
G1 X134.944 Y85.151 E1.79289
G1 X135.452 Y85.6 E1.81544
G1 X135.721 Y85.846 E1.82757
G1 X136.391 Y86.479 E1.85822
G1 X136.676 Y86.758 E1.87149
G1 X137.053 Y87.141 E1.88936
G1 X137.293 Y87.393 E1.90094
G1 X137.852 Y87.998 E1.92833
G1 X138.126 Y88.306 E1.94204
G1 X138.581 Y88.837 E1.9653
G1 X138.824 Y89.13 E1.97796
G1 X139.268 Y89.686 E2.00163
G1 X139.496 Y89.982 E2.01406
G1 X139.854 Y90.463 E2.034
G1 X140.098 Y90.805 E2.04797
G1 X140.569 Y91.491 E2.07565
G1 X140.774 Y91.8 E2.08798
G1 X141.019 Y92.184 E2.10313
G1 X141.226 Y92.521 E2.11629
G1 X141.631 Y93.209 E2.14284
G1 X141.828 Y93.558 E2.15617
G1 X142.141 Y94.137 E2.17806
G1 X142.316 Y94.475 E2.19072
G1 X142.616 Y95.079 E2.21315
G1 X142.781 Y95.426 E2.22593
G1 X142.894 Y95.675 E2.23503
G1 X142.998 Y95.912 E2.24363
G1 X143.21 Y96.41 E2.26164
G1 X143.323 Y96.685 E2.27152
G1 X143.554 Y97.271 E2.29247
G1 X143.661 Y97.556 E2.3026
G1 X143.777 Y97.876 E2.31392
G1 X143.877 Y98.164 E2.32406
G1 X143.987 Y98.498 E2.33576
G1 X144.122 Y98.927 E2.35071
G1 X144.233 Y99.303 E2.36375
G1 X144.499 Y100.267 E2.39701
G1 X144.592 Y100.628 E2.40941
G1 X144.645 Y100.849 E2.41697
G1 X144.721 Y101.189 E2.42856
G1 X144.918 Y102.143 E2.46096
G1 X144.987 Y102.508 E2.47331
G1 X145.022 Y102.712 E2.4802
G1 X145.076 Y103.062 E2.49198
G1 X145.207 Y104.007 E2.52371
G1 X145.253 Y104.389 E2.53651
G1 X145.283 Y104.68 E2.54624
G1 X145.312 Y105.015 E2.55742
G1 X145.373 Y105.859 E2.58556
G1 X145.392 Y106.18 E2.59626
G1 X145.41 Y106.599 E2.61021
G1 X145.419 Y106.957 E2.62212
G1 X145.426 Y107.632 E2.64457
G1 X145.425 Y107.942 E2.65488
G1 X145.417 Y108.392 E2.66985
G1 X145.407 Y108.709 E2.6804
G1 X145.374 Y109.416 E2.70394
G1 X145.352 Y109.765 E2.71557
G1 X145.305 Y110.363 E2.73552
G1 X145.278 Y110.659 E2.74541
G1 X145.229 Y111.122 E2.76089
G1 X145.196 Y111.403 E2.7703
G1 X145.115 Y112.017 E2.7909
G1 X145.07 Y112.318 E2.80103
G1 X144.987 Y112.836 E2.81847
G1 X144.935 Y113.137 E2.82863
G1 X144.803 Y113.836 E2.85229
G1 X144.744 Y114.128 E2.8622
G1 X144.665 Y114.492 E2.87459
G1 X144.604 Y114.755 E2.88357
G1 X144.425 Y115.492 E2.90879
G1 X144.353 Y115.775 E2.91851
G1 X144.257 Y116.129 E2.93071
G1 X144.181 Y116.396 E2.93994
G1 X143.95 Y117.17 E2.96681
G1 X143.871 Y117.422 E2.97559
G1 X143.782 Y117.696 E2.98517
G1 X143.696 Y117.95 E2.99409
G1 X143.425 Y118.72 E3.02124
G1 X143.323 Y118.999 E3.03112
G1 X143.148 Y119.449 E3.04718
G1 X142.824 Y120.244 E3.07573
G1 X142.642 Y120.671 E3.09117
G1 X142.527 Y120.927 E3.10051
G1 X142.139 Y121.763 E3.13116
G1 X141.953 Y122.147 E3.14535
G1 X141.821 Y122.407 E3.15505
G1 X141.423 Y123.166 E3.18355
G1 X141.258 Y123.471 E3.19509
G1 X141.111 Y123.731 E3.20502
G1 X140.646 Y124.527 E3.23568
G1 X140.488 Y124.789 E3.24586
G1 X140.323 Y125.052 E3.25619
G1 X139.87 Y125.751 E3.28389
G1 X139.639 Y126.095 E3.29767
G1 X139.504 Y126.289 E3.30553
G1 X139.038 Y126.94 E3.33216
G1 X138.863 Y127.177 E3.34196
G1 X138.704 Y127.387 E3.35072
G1 X138.548 Y127.587 E3.35916
G1 X138.147 Y128.092 E3.3806
G1 X137.969 Y128.312 E3.39002
G1 X137.774 Y128.545 E3.40012
G1 X137.587 Y128.762 E3.40965
G1 X137.175 Y129.229 E3.43036
G1 X136.98 Y129.444 E3.44002
G1 X136.727 Y129.716 E3.45237
G1 X136.514 Y129.939 E3.46263
G1 X136.208 Y130.25 E3.47714
G1 X135.968 Y130.486 E3.48834
G1 X135.559 Y130.877 E3.50715
G1 X135.314 Y131.105 E3.51829
G1 X135.165 Y131.239 E3.52495
G1 X134.916 Y131.456 E3.53594
G1 X134.356 Y131.93 E3.56034
G1 X134.046 Y132.184 E3.57367
G1 X133.724 Y132.432 E3.58719
G1 X133.133 Y132.87 E3.61165
G1 X132.824 Y133.09 E3.62427
G1 X132.615 Y133.234 E3.63271
G1 X131.821 Y133.733 E3.6639
G1 X131.315 Y134.004 E3.68299
G1 X131.132 Y134.096 E3.68981
G1 X130.854 Y134.231 E3.70008
G1 X130.713 Y134.297 E3.70526
G1 X129.848 Y134.658 E3.73644
G1 X128.955 Y134.944 E3.76762
G1 X128.289 Y135.104 E3.79041
G1 X127.856 Y135.194 E3.80512
G1 X127.193 Y135.31 E3.8275
G1 X126.156 Y135.46 E3.86235
G1 X125.407 Y135.557 E3.88747
G1 X122.977 Y135.941 E3.9693
G1 X120.461 Y136.412 E4.05443
G1 X118.016 Y136.942 E4.13764
G1 X115.614 Y137.533 E4.21992
G1 X114.754 Y137.769 E4.24958
G1 X114.119 Y137.933 E4.27139
G1 X113.461 Y138.081 E4.29382
G1 X112.718 Y138.225 E4.31899
G1 X111.79 Y138.364 E4.3502
G1 X111.165 Y138.413 E4.37106
G1 X110.982 Y138.422 E4.37715
G1 X110.442 Y138.435 E4.39512
G1 X110.131 Y138.435 E4.40546
G1 X108.808 Y138.355 E4.44954
G1 X108.164 Y138.277 E4.47112
G1 X107.239 Y138.125 E4.5023
G1 X106.66 Y137.988 E4.52209
G1 X104.646 Y137.452 E4.5914
G1 X102.214 Y136.879 E4.67451
G1 X99.746 Y136.373 E4.7583
G1 X97.302 Y135.941 E4.84085
G1 X93.921 Y135.458 E4.95444
G1 X93.352 Y135.388 E4.97351
G1 X92.958 Y135.332 E4.98675
G1 X92.239 Y135.217 E5.01096
G1 X91.32 Y135.029 E5.04216
G1 X90.42 Y134.764 E5.07337
G1 X89.517 Y134.411 E5.10562
G1 X89.411 Y134.364 E5.10947
G1 X88.985 Y134.164 E5.12513
G1 X88.757 Y134.051 E5.13359
G1 X87.935 Y133.599 E5.16479
G1 X87.399 Y133.242 E5.18621
G1 X87.395 Y133.247 E5.18642
G1 X87.044 Y133.005 E5.2006
G1 X86.757 Y132.801 E5.21231
G1 X86.593 Y132.68 E5.21909
G1 X86.314 Y132.466 E5.23079
G1 X85.714 Y131.993 E5.2562
G1 X85.353 Y131.697 E5.27173
G1 X85.101 Y131.477 E5.28285
G1 X84.539 Y130.972 E5.30798
G1 X84.288 Y130.74 E5.31935
G1 X84.082 Y130.543 E5.32883
G1 X83.851 Y130.315 E5.33963
G1 X83.504 Y129.963 E5.35607
G1 X83.296 Y129.747 E5.36604
G1 X82.974 Y129.402 E5.38174
G1 X82.752 Y129.156 E5.39276
G1 X82.47 Y128.835 E5.40697
G1 X82.284 Y128.617 E5.4165
G1 X81.874 Y128.125 E5.4378
G1 X81.688 Y127.896 E5.44761
G1 X81.372 Y127.491 E5.4647
G1 X80.931 Y126.904 E5.48912
G1 X80.64 Y126.502 E5.50562
G1 X80.461 Y126.244 E5.51607
G1 X79.945 Y125.477 E5.54681
G1 X79.676 Y125.057 E5.5634
G1 X79.203 Y124.28 E5.59366
G1 X79.066 Y124.049 E5.60259
G1 X78.971 Y123.884 E5.60892
G1 X78.845 Y123.658 E5.61753
G1 X78.42 Y122.878 E5.64707
G1 X78.257 Y122.569 E5.65869
G1 X78.121 Y122.299 E5.66875
G1 X77.726 Y121.486 E5.69881
G1 X77.564 Y121.138 E5.71158
G1 X77.456 Y120.896 E5.72039
G1 X77.08 Y120.019 E5.75213
G1 X76.951 Y119.707 E5.76336
G1 X76.837 Y119.415 E5.77378
G1 X76.462 Y118.412 E5.8094
G1 X76.406 Y118.256 E5.81491
G1 X76.287 Y117.907 E5.82718
G1 X76.011 Y117.049 E5.85715
G1 X75.855 Y116.528 E5.87524
G1 X75.782 Y116.269 E5.88419
G1 X75.565 Y115.457 E5.91215
G1 X75.5 Y115.202 E5.9209
G1 X75.427 Y114.9 E5.93123
G1 X75.363 Y114.62 E5.94079
G1 X75.21 Y113.906 E5.96507
G1 X75.154 Y113.625 E5.9746
G1 X75.081 Y113.235 E5.9878
G1 X75.032 Y112.953 E5.99732
G1 X74.917 Y112.236 E6.02147
G1 X74.874 Y111.942 E6.03135
G1 X74.821 Y111.543 E6.04474
G1 X74.783 Y111.227 E6.05533
G1 X74.702 Y110.444 E6.08151
G1 X74.675 Y110.132 E6.09193
G1 X74.64 Y109.664 E6.10753
G1 X74.621 Y109.355 E6.11783
G1 X74.595 Y108.796 E6.13644
G1 X74.585 Y108.488 E6.14669
G1 X74.575 Y107.945 E6.16476
G1 X74.573 Y107.652 E6.1745
G1 X74.577 Y107.163 E6.19077
G1 X74.585 Y106.829 E6.20188
G1 X74.615 Y106.051 E6.22777
G1 X74.632 Y105.733 E6.23837
G1 X74.652 Y105.437 E6.24823
G1 X74.683 Y105.071 E6.26045
G1 X74.774 Y104.172 E6.2905
G1 X74.817 Y103.805 E6.30279
G1 X74.858 Y103.502 E6.31296
G1 X74.91 Y103.16 E6.32447
G1 X75.055 Y102.294 E6.35367
G1 X75.103 Y102.026 E6.36273
G1 X75.142 Y101.824 E6.36957
G1 X75.238 Y101.38 E6.38468
G1 X75.474 Y100.381 E6.41882
G1 X75.577 Y99.978 E6.43266
G1 X75.701 Y99.545 E6.44764
G1 X76.029 Y98.475 E6.48486
G1 X76.155 Y98.09 E6.49833
G1 X76.271 Y97.756 E6.51009
G1 X76.385 Y97.442 E6.5212
G1 X76.548 Y97.015 E6.53641
G1 X76.67 Y96.708 E6.54739
G1 X76.762 Y96.488 E6.55533
G1 X77.073 Y95.763 E6.58156
G1 X77.327 Y95.213 E6.60171
G1 X77.741 Y94.378 E6.63271
G1 X77.918 Y94.035 E6.64555
G1 X78.173 Y93.563 E6.66339
G1 X78.382 Y93.193 E6.67753
G1 X78.748 Y92.574 E6.70144
G1 X78.947 Y92.251 E6.71406
G1 X79.329 Y91.653 E6.73766
G1 X79.567 Y91.296 E6.75193
G1 X79.916 Y90.794 E6.77227
G1 X80.127 Y90.502 E6.78425
G1 X80.53 Y89.961 E6.80669
G1 X80.76 Y89.663 E6.81921
G1 X81.147 Y89.179 E6.83982
G1 X81.398 Y88.876 E6.85291
G1 X81.877 Y88.319 E6.87734
G1 X82.143 Y88.021 E6.89063
G1 X82.749 Y87.366 E6.92031
G1 X83.011 Y87.092 E6.93292
G1 X83.356 Y86.744 E6.94921
G1 X83.606 Y86.5 E6.96083
G0 F6000 X83.881 Y86.79
G1 F1200 X84.575 Y86.133 E6.99262
G1 X84.854 Y85.878 E7.00519
G1 X85.275 Y85.507 E7.02385
G1 X85.512 Y85.305 E7.03421
G1 X86.231 Y84.708 E7.06529
G1 X86.484 Y84.504 E7.0761
G1 X86.711 Y84.327 E7.08568
G1 X87.461 Y83.793 E7.1163
G1 X88.254 Y83.326 E7.14691
G1 X88.843 Y83.036 E7.16874
G1 X89.052 Y82.941 E7.17638
G1 X89.906 Y82.597 E7.207
G1 X90.786 Y82.328 E7.23761
G1 X91.687 Y82.137 E7.26824
G1 X92.6 Y82.024 E7.29884
G1 X93.856 Y81.999 E7.34062
G1 X94.084 Y82.008 E7.34821
G1 X95.209 Y82.113 E7.38579
G1 X96.376 Y82.286 E7.42503
G1 X96.836 Y82.361 E7.44053
G1 X99.345 Y82.697 E7.52473
G1 X101.869 Y82.963 E7.60914
G1 X104.369 Y83.154 E7.69253
G1 X106.922 Y83.278 E7.77755
G1 X109.428 Y83.328 E7.86091
G1 X111.979 Y83.307 E7.94576
G1 X114.479 Y83.216 E8.02897
G1 X117.032 Y83.05 E8.11406
G1 X119.54 Y82.815 E8.19784
G1 X122.052 Y82.509 E8.28201
G1 X123.545 Y82.285 E8.33222
G1 X123.701 Y82.268 E8.33744
G1 X124.872 Y82.089 E8.37684
G1 X125.787 Y81.99 E8.40745
G1 X126.708 Y81.969 E8.43809
G1 X127.626 Y82.029 E8.46869
G1 X128.536 Y82.169 E8.49931
G1 X129.431 Y82.387 E8.52995
G1 X129.974 Y82.56 E8.54891
G1 X130.266 Y82.662 E8.55919
G1 X131.121 Y83.003 E8.58981
G1 X131.943 Y83.417 E8.62042
G1 X132.726 Y83.901 E8.65104
G1 X133.146 Y84.201 E8.6682
G1 X133.32 Y84.332 E8.67545
G1 X133.711 Y84.641 E8.69202
G1 X134.426 Y85.234 E8.72292
G1 X134.679 Y85.451 E8.73401
G1 X135.187 Y85.9 E8.75656
G1 X135.447 Y86.137 E8.76826
G1 X136.117 Y86.77 E8.79891
G1 X136.391 Y87.039 E8.81168
G1 X136.768 Y87.422 E8.82956
G1 X136.999 Y87.664 E8.84069
G1 X137.558 Y88.269 E8.86808
G1 X137.822 Y88.566 E8.8813
G1 X138.277 Y89.097 E8.90456
G1 X138.511 Y89.38 E8.91677
G1 X138.955 Y89.936 E8.94044
G1 X139.175 Y90.221 E8.95241
G1 X139.533 Y90.702 E8.97235
G1 X139.769 Y91.031 E8.98582
G1 X140.24 Y91.717 E9.0135
G1 X140.437 Y92.016 E9.02541
G1 X140.682 Y92.4 E9.04056
G1 X140.881 Y92.724 E9.0532
G1 X141.286 Y93.412 E9.07976
G1 X141.476 Y93.748 E9.0926
G1 X141.789 Y94.327 E9.11449
G1 X141.957 Y94.653 E9.12669
G1 X142.257 Y95.257 E9.14912
G1 X142.417 Y95.592 E9.16146
G1 X142.53 Y95.841 E9.17056
G1 X142.63 Y96.069 E9.17884
G1 X142.842 Y96.567 E9.19684
G1 X142.95 Y96.832 E9.20636
G1 X143.181 Y97.418 E9.22731
G1 X143.285 Y97.693 E9.23709
G1 X143.401 Y98.013 E9.24841
G1 X143.498 Y98.29 E9.25817
G1 X143.605 Y98.618 E9.26965
G1 X143.74 Y99.047 E9.2846
G1 X143.847 Y99.409 E9.29716
G1 X144.113 Y100.373 E9.33042
G1 X144.203 Y100.721 E9.34237
G1 X144.256 Y100.942 E9.34993
G1 X144.329 Y101.27 E9.36111
G1 X144.526 Y102.224 E9.39351
G1 X144.592 Y102.576 E9.40542
G1 X144.627 Y102.78 E9.41231
G1 X144.68 Y103.117 E9.42365
G1 X144.811 Y104.062 E9.45538
G1 X144.855 Y104.43 E9.46771
G1 X144.885 Y104.721 E9.47744
G1 X144.913 Y105.044 E9.48822
G1 X144.974 Y105.888 E9.51637
G1 X144.992 Y106.197 E9.52666
G1 X145.01 Y106.616 E9.54061
G1 X145.019 Y106.961 E9.55209
G1 X145.026 Y107.636 E9.57454
G1 X145.025 Y107.934 E9.58445
G1 X145.017 Y108.384 E9.59942
G1 X145.007 Y108.69 E9.60961
G1 X144.974 Y109.397 E9.63315
G1 X144.953 Y109.734 E9.64438
G1 X144.906 Y110.332 E9.66433
G1 X144.88 Y110.617 E9.67385
G1 X144.831 Y111.08 E9.68933
G1 X144.799 Y111.35 E9.69838
G1 X144.718 Y111.964 E9.71897
G1 X144.675 Y112.255 E9.72876
G1 X144.592 Y112.773 E9.74621
G1 X144.542 Y113.063 E9.75599
G1 X144.41 Y113.762 E9.77965
G1 X144.353 Y114.043 E9.78919
G1 X144.274 Y114.407 E9.80158
G1 X144.216 Y114.661 E9.81024
G1 X144.037 Y115.398 E9.83547
G1 X143.966 Y115.67 E9.84482
G1 X143.87 Y116.024 E9.85702
G1 X143.797 Y116.281 E9.8659
G1 X143.566 Y117.055 E9.89277
G1 X143.491 Y117.299 E9.90126
G1 X143.402 Y117.573 E9.91084
G1 X143.319 Y117.817 E9.91941
G1 X143.048 Y118.587 E9.94656
G1 X142.949 Y118.856 E9.9561
G1 X142.777 Y119.299 E9.9719
G1 X142.453 Y120.094 E10.00046
G1 X142.275 Y120.512 E10.01557
G1 X142.164 Y120.758 E10.02454
G1 X141.776 Y121.594 E10.0552
G1 X141.594 Y121.971 E10.06912
G1 X141.467 Y122.222 E10.07848
G1 X141.069 Y122.981 E10.10698
G1 X140.907 Y123.279 E10.11826
G1 X140.766 Y123.529 E10.12781
G1 X140.301 Y124.325 E10.15847
G1 X140.147 Y124.581 E10.16841
G1 X139.987 Y124.835 E10.17839
G1 X139.534 Y125.534 E10.2061
G1 X139.309 Y125.869 E10.21952
G1 X139.178 Y126.056 E10.22711
G1 X138.712 Y126.707 E10.25374
G1 X138.544 Y126.936 E10.26319
G1 X138.385 Y127.146 E10.27195
G1 X138.235 Y127.339 E10.28008
G1 X137.834 Y127.844 E10.30153
G1 X137.662 Y128.055 E10.31058
G1 X137.467 Y128.288 E10.32069
G1 X137.287 Y128.498 E10.32989
G1 X136.875 Y128.965 E10.3506
G1 X136.688 Y129.171 E10.35985
G1 X136.435 Y129.443 E10.37221
G1 X136.229 Y129.658 E10.38211
G1 X135.923 Y129.969 E10.39662
G1 X135.692 Y130.197 E10.40742
G1 X135.283 Y130.588 E10.42624
G1 X135.046 Y130.808 E10.43699
G1 X134.897 Y130.942 E10.44366
G1 X134.657 Y131.151 E10.45424
G1 X134.097 Y131.625 E10.47864
G1 X133.796 Y131.871 E10.49157
G1 X133.485 Y132.11 E10.50462
G1 X132.894 Y132.548 E10.52909
G1 X132.597 Y132.761 E10.54124
G1 X132.388 Y132.905 E10.54968
G1 X131.608 Y133.394 E10.5803
G1 X131.135 Y133.647 E10.59814
G1 X130.952 Y133.739 E10.60496
G1 X130.544 Y133.934 E10.62
G1 X129.694 Y134.288 E10.65062
G1 X128.816 Y134.567 E10.68126
G1 X128.207 Y134.712 E10.70209
G1 X127.774 Y134.802 E10.71679
G1 X127.136 Y134.915 E10.73834
G1 X126.104 Y135.063 E10.77302
G1 X125.37 Y135.158 E10.79764
G1 X122.913 Y135.546 E10.88037
G1 X120.402 Y136.017 E10.96534
G1 X117.916 Y136.555 E11.04994
G1 X115.484 Y137.154 E11.13325
