;FLAVOR:Marlin
;TIME:2119
;Filament used: 1.33504m
;Layer height: 0.16
;MINX:89
;MINY:89
;MINZ:0.2
;MAXX:131
;MAXY:131
;MAXZ:19.88
;Generated with Creality Slicer 4.8.2-216
M140 S65
M105
M190 S65
M104 S210
M105
M109 S210
M82 ;absolute extrusion mode

G28 ;Home

G92 E0 ;Reset Extruder
G1 Z2.0 F3000 ;Move Z Axis up
G1 X10.1 Y20 Z0.28 F5000.0 ;Move to start position
G1 X10.1 Y200.0 Z0.28 F1500.0 E15 ;Draw the first line
G1 X10.4 Y200.0 Z0.28 F5000.0 ;Move to side a little
G1 X10.4 Y20 Z0.28 F1500.0 E30 ;Draw the second line
G92 E0 ;Reset Extruder
G1 Z2.0 F3000 ;Move Z Axis up

G92 E0
G92 E0
G1 F2700 E-8
;LAYER_COUNT:124
;LAYER:0
M107
G0 F6000 X92.198 Y92.264 Z0.2
;TYPE:SKIRT
G1 F2700 E0
G1 F1200 X92.886 Y91.627 E0.03119
G1 X93.626 Y91.051 E0.06237
G1 X94.412 Y90.539 E0.09357
G1 X95.239 Y90.097 E0.12476
G1 X96.101 Y89.727 E0.15596
G1 X96.991 Y89.431 E0.18716
G1 X97.903 Y89.213 E0.21835
G1 X98.83 Y89.072 E0.24953
G1 X99.701 Y89.013 E0.27857
G1 X100.022 Y89.004 E0.28925
G1 X100.33 Y89 E0.29949
G1 X119.293 Y89 E0.93021
G1 X120.149 Y89.011 E0.95868
G1 X121.085 Y89.065 E0.98986
G1 X122.013 Y89.197 E1.02104
G1 X122.927 Y89.409 E1.05225
G1 X123.819 Y89.698 E1.08343
G1 X124.684 Y90.061 E1.11463
G1 X125.514 Y90.497 E1.14582
G1 X126.305 Y91.002 E1.17703
G1 X127.049 Y91.573 E1.20822
G1 X127.742 Y92.205 E1.23942
G1 X128.379 Y92.893 E1.2706
G1 X128.954 Y93.634 E1.3018
G1 X129.465 Y94.42 E1.33298
G1 X129.907 Y95.248 E1.3642
G1 X130.276 Y96.11 E1.39538
G1 X130.571 Y97 E1.42657
G1 X130.789 Y97.912 E1.45776
G1 X130.929 Y98.84 E1.48897
G1 X130.987 Y99.701 E1.51767
G1 X130.996 Y100.021 E1.52832
G1 X131 Y100.33 E1.5386
G1 X130.999 Y119.4 E2.17287
G1 X130.99 Y120.127 E2.19705
G1 X130.939 Y121.064 E2.22826
G1 X130.807 Y121.992 E2.25944
G1 X130.598 Y122.906 E2.29062
G1 X130.311 Y123.799 E2.32182
G1 X129.949 Y124.665 E2.35304
G1 X129.515 Y125.496 E2.38422
G1 X129.011 Y126.287 E2.41542
G1 X128.442 Y127.032 E2.4466
G1 X127.811 Y127.727 E2.47782
G1 X127.124 Y128.365 E2.509
G1 X126.385 Y128.942 E2.54018
G1 X125.599 Y129.454 E2.57138
G1 X124.773 Y129.897 E2.60256
G1 X123.911 Y130.269 E2.63378
G1 X123.022 Y130.565 E2.66495
G1 X122.11 Y130.785 E2.69615
G1 X121.183 Y130.926 E2.72734
G1 X120.299 Y130.987 E2.75681
G1 X119.978 Y130.996 E2.76749
G1 X119.67 Y131 E2.77774
G1 X100.565 Y130.999 E3.41317
G1 X99.867 Y130.99 E3.43639
G1 X98.931 Y130.938 E3.46757
G1 X98.002 Y130.806 E3.49878
G1 X97.088 Y130.596 E3.52997
G1 X96.195 Y130.309 E3.56117
G1 X95.33 Y129.946 E3.59237
G1 X94.499 Y129.512 E3.62355
G1 X93.708 Y129.008 E3.65474
G1 X92.963 Y128.438 E3.68594
G1 X92.269 Y127.807 E3.71714
G1 X91.632 Y127.12 E3.7483
G1 X91.055 Y126.38 E3.77951
G1 X90.543 Y125.594 E3.81071
G1 X90.1 Y124.767 E3.84192
G1 X89.729 Y123.906 E3.8731
G1 X89.433 Y123.016 E3.90429
G1 X89.214 Y122.104 E3.93549
G1 X89.073 Y121.177 E3.96668
G1 X89.013 Y120.288 E3.99631
G1 X89.004 Y119.955 E4.00739
G1 X89 Y119.658 E4.01727
G1 X89.001 Y100.525 E4.65364
G1 X89.01 Y99.86 E4.67576
G1 X89.063 Y98.924 E4.70694
G1 X89.195 Y97.995 E4.73815
G1 X89.406 Y97.081 E4.76935
G1 X89.694 Y96.189 E4.80052
G1 X90.057 Y95.324 E4.83172
G1 X90.492 Y94.493 E4.86292
G1 X90.996 Y93.703 E4.89409
G1 X91.566 Y92.958 E4.92529
G1 X92.198 Y92.264 E4.95651
G0 F6000 X92.589 Y92.439
G1 F1200 X93.274 Y91.823 E4.98715
G1 X94.01 Y91.27 E5.01777
G1 X94.791 Y90.782 E5.0484
G1 X95.611 Y90.364 E5.07901
G1 X96.465 Y90.019 E5.10964
G1 X97.345 Y89.749 E5.14026
G1 X98.245 Y89.557 E5.17087
G1 X99.159 Y89.443 E5.2015
G1 X99.712 Y89.413 E5.21992
G1 X100.033 Y89.404 E5.2306
G1 X100.33 Y89.4 E5.24048
G1 X119.293 Y89.4 E5.87119
G1 X120.143 Y89.411 E5.89947
G1 X121.062 Y89.464 E5.93008
G1 X121.973 Y89.597 E5.9607
G1 X122.869 Y89.808 E5.99132
G1 X123.743 Y90.096 E6.02193
G1 X124.59 Y90.459 E6.05258
G1 X125.401 Y90.894 E6.08319
G1 X126.171 Y91.398 E6.1138
G1 X126.895 Y91.967 E6.14442
G1 X127.567 Y92.597 E6.17506
G1 X128.182 Y93.282 E6.20568
G1 X128.735 Y94.018 E6.2363
G1 X129.222 Y94.799 E6.26691
G1 X129.639 Y95.62 E6.29754
G1 X129.984 Y96.474 E6.32817
G1 X130.253 Y97.354 E6.35878
G1 X130.445 Y98.255 E6.38942
G1 X130.558 Y99.168 E6.42001
G1 X130.587 Y99.712 E6.43813
G1 X130.596 Y100.032 E6.44878
G1 X130.6 Y100.33 E6.45869
G1 X130.599 Y119.395 E7.0928
G1 X130.59 Y120.122 E7.11698
G1 X130.539 Y121.041 E7.14759
G1 X130.408 Y121.953 E7.17824
G1 X130.198 Y122.849 E7.20885
G1 X129.912 Y123.724 E7.23946
G1 X129.551 Y124.571 E7.27009
G1 X129.117 Y125.383 E7.30071
G1 X128.615 Y126.155 E7.33134
G1 X128.047 Y126.88 E7.36197
G1 X127.419 Y127.553 E7.39259
G1 X126.735 Y128.169 E7.4232
G1 X126 Y128.723 E7.45382
G1 X125.22 Y129.212 E7.48444
G1 X124.4 Y129.631 E7.51506
G1 X123.547 Y129.977 E7.54568
G1 X122.667 Y130.248 E7.5763
G1 X121.767 Y130.441 E7.60692
G1 X120.853 Y130.556 E7.63756
G1 X120.288 Y130.587 E7.65638
G1 X119.967 Y130.596 E7.66706
G1 X119.67 Y130.6 E7.67694
G1 X100.57 Y130.599 E8.31221
G1 X99.872 Y130.59 E8.33542
G1 X98.953 Y130.538 E8.36604
G1 X98.042 Y130.407 E8.39665
G1 X97.146 Y130.197 E8.42726
G1 X96.271 Y129.91 E8.45789
G1 X95.424 Y129.548 E8.48852
G1 X94.612 Y129.114 E8.51915
G1 X93.841 Y128.612 E8.54975
G1 X93.116 Y128.044 E8.58038
G1 X92.443 Y127.415 E8.61102
G1 X91.828 Y126.731 E8.64161
G1 X91.274 Y125.996 E8.67222
G1 X90.786 Y125.215 E8.70285
G1 X90.367 Y124.395 E8.73348
G1 X90.021 Y123.542 E8.7641
G1 X89.751 Y122.662 E8.79471
G1 X89.558 Y121.761 E8.82536
G1 X89.444 Y120.848 E8.85596
G1 X89.413 Y120.277 E8.87498
G1 X89.404 Y119.944 E8.88606
G1 X89.4 Y119.658 E8.89558
G1 X89.401 Y100.531 E9.53174
G1 X89.41 Y99.866 E9.55386
G1 X89.462 Y98.946 E9.58451
G1 X89.594 Y98.035 E9.61513
G1 X89.805 Y97.139 E9.64574
G1 X90.092 Y96.264 E9.67637
G1 X90.455 Y95.418 E9.70699
G1 X90.889 Y94.606 E9.73761
G1 X91.392 Y93.835 E9.76823
G1 X91.961 Y93.111 E9.79886
G1 X92.589 Y92.439 E9.82945
G0 F6000 X92.981 Y92.617
G1 F1200 X93.662 Y92.024 E9.85948
G1 X94.394 Y91.494 E9.88954
G1 X95.169 Y91.031 E9.91957
G1 X95.982 Y90.638 E9.9496
G1 X96.827 Y90.318 E9.97966
G1 X97.696 Y90.075 E10.00967
G1 X98.584 Y89.909 E10.03971
G1 X99.723 Y89.813 E10.07773
G1 X100.044 Y89.804 E10.08841
G1 X100.33 Y89.8 E10.09793
G1 X119.293 Y89.8 E10.72864
G1 X120.137 Y89.811 E10.75671
G1 X121.039 Y89.864 E10.78676
G1 X121.932 Y89.996 E10.81679
G1 X122.81 Y90.207 E10.84682
G1 X123.666 Y90.495 E10.87686
G1 X124.493 Y90.857 E10.90689
G1 X125.285 Y91.292 E10.93694
G1 X126.036 Y91.794 E10.96698
G1 X126.739 Y92.361 E10.99702
G1 X127.389 Y92.988 E11.02706
G1 X127.981 Y93.67 E11.0571
G1 X128.511 Y94.401 E11.08713
G1 X128.973 Y95.177 E11.11717
G1 X129.366 Y95.99 E11.1472
G1 X129.684 Y96.835 E11.17723
G1 X129.927 Y97.705 E11.20728
G1 X130.092 Y98.593 E11.23732
G1 X130.187 Y99.723 E11.27503
G1 X130.196 Y100.043 E11.28568
G1 X130.2 Y100.33 E11.29523
G1 X130.199 Y119.39 E11.92916
G1 X130.19 Y120.117 E11.95335
G1 X130.139 Y121.019 E11.9834
G1 X130.008 Y121.913 E12.01345
G1 X129.799 Y122.791 E12.04347
G1 X129.513 Y123.648 E12.07351
G1 X129.152 Y124.476 E12.10356
G1 X128.72 Y125.268 E12.13356
G1 X128.219 Y126.02 E12.16362
G1 X127.653 Y126.724 E12.19366
G1 X127.028 Y127.375 E12.22368
G1 X126.347 Y127.969 E12.25373
G1 X125.616 Y128.5 E12.28378
G1 X124.842 Y128.964 E12.3138
G1 X124.029 Y129.358 E12.34385
G1 X123.185 Y129.678 E12.37387
G1 X122.315 Y129.923 E12.40393
G1 X121.428 Y130.089 E12.43394
G1 X120.277 Y130.187 E12.47237
G1 X119.956 Y130.196 E12.48305
G1 X119.67 Y130.2 E12.49256
G1 X100.575 Y130.199 E13.12766
G1 X99.877 Y130.19 E13.15088
G1 X98.976 Y130.139 E13.1809
G1 X98.082 Y130.007 E13.21095
G1 X97.204 Y129.798 E13.24097
G1 X96.347 Y129.511 E13.27103
G1 X95.52 Y129.15 E13.30104
G1 X94.727 Y128.717 E13.33109
G1 X93.976 Y128.216 E13.36112
G1 X93.272 Y127.65 E13.39116
G1 X92.621 Y127.024 E13.4212
G1 X92.028 Y126.343 E13.45124
G1 X91.498 Y125.612 E13.48127
G1 X91.034 Y124.837 E13.51131
G1 X90.64 Y124.024 E13.54136
G1 X90.32 Y123.18 E13.57138
G1 X90.076 Y122.31 E13.60143
G1 X89.91 Y121.422 E13.63148
G1 X89.813 Y120.267 E13.67003
G1 X89.804 Y119.934 E13.68111
G1 X89.8 Y119.658 E13.69029
G1 X89.801 Y100.536 E14.32629
G1 X89.81 Y99.871 E14.34841
G1 X89.862 Y98.969 E14.37846
G1 X89.994 Y98.076 E14.40849
G1 X90.204 Y97.198 E14.43851
G1 X90.491 Y96.341 E14.46857
G1 X90.853 Y95.514 E14.4986
G1 X91.286 Y94.722 E14.52862
G1 X91.788 Y93.971 E14.55867
G1 X92.355 Y93.267 E14.58873
G1 X92.981 Y92.617 E14.61875
G1 F2700 E6.61875
;MESH:xyzCalibration_cube.stl
G0 F6000 X100.414 Y99.335
G0 X100.414 Y100.414
G0 X118.818 Y101.182
G0 X119 Y119
;TYPE:WALL-INNER
G1 F2700 E14.61875
G1 F1200 X101 Y119 E15.21743
G1 X101 Y101 E15.81611
G1 X119 Y101 E16.41479
G1 X119 Y119 E17.01348
G0 F6000 X119.4 Y119.4
G1 F1200 X100.6 Y119.4 E17.63877
G1 X100.6 Y100.6 E18.26406
G1 X119.4 Y100.6 E18.88935
G1 X119.4 Y119.4 E19.51464
G0 F6000 X119.8 Y119.8
;TYPE:WALL-OUTER
G1 F1200 X100.2 Y119.8 E20.16654
G1 X100.2 Y100.2 E20.81843
G1 X119.8 Y100.2 E21.47033
G1 X119.8 Y119.8 E22.12223
G0 F6000 X119.53 Y119.53
G0 X118.89 Y118.61
G0 X118.61 Y118.61
;TYPE:SKIN
G1 F1200 X101.39 Y118.61 E22.69497
G1 X101.39 Y101.39 E23.26771
G1 X118.61 Y101.39 E23.84045
G1 X118.61 Y118.61 E24.41319
G0 F6000 X118.89 Y118.61
G0 X118.89 Y102.044
G0 X118.449 Y102.044
G1 F1200 X117.954 Y101.549 E24.43647
G0 F6000 X117.388 Y101.549
G1 F1200 X118.449 Y102.61 E24.48638
G0 F6000 X118.449 Y103.176
G1 F1200 X116.823 Y101.549 E24.56289
G0 F6000 X116.257 Y101.549
G1 F1200 X118.449 Y103.741 E24.66599
G0 F6000 X118.449 Y104.307
G1 F1200 X115.691 Y101.549 E24.79572
G0 F6000 X115.126 Y101.549
G1 F1200 X118.449 Y104.873 E24.95205
G0 F6000 X118.449 Y105.438
G1 F1200 X114.56 Y101.549 E25.13497
G0 F6000 X113.994 Y101.549
G1 F1200 X118.449 Y106.004 E25.34452
G0 F6000 X118.449 Y106.57
G1 F1200 X113.429 Y101.549 E25.58067
G0 F6000 X112.863 Y101.549
G1 F1200 X118.449 Y107.135 E25.84342
G0 F6000 X118.449 Y107.701
G1 F1200 X112.297 Y101.549 E26.13279
G0 F6000 X111.732 Y101.549
G1 F1200 X118.449 Y108.267 E26.44876
G0 F6000 X118.449 Y108.832
G1 F1200 X111.166 Y101.549 E26.79133
G0 F6000 X110.6 Y101.549
G1 F1200 X118.449 Y109.398 E27.16052
G0 F6000 X118.449 Y109.964
G1 F1200 X110.035 Y101.549 E27.55632
G0 F6000 X109.469 Y101.549
G1 F1200 X118.449 Y110.529 E27.97871
G0 F6000 X118.449 Y111.095
G1 F1200 X108.903 Y101.549 E28.42772
G0 F6000 X108.337 Y101.549
G1 F1200 X118.449 Y111.661 E28.90336
G0 F6000 X118.449 Y112.227
G1 F1200 X107.772 Y101.549 E29.4056
G0 F6000 X107.206 Y101.549
G1 F1200 X118.449 Y112.792 E29.93443
G0 F6000 X118.449 Y113.358
G1 F1200 X106.64 Y101.549 E30.48989
G0 F6000 X106.075 Y101.549
G1 F1200 X118.449 Y113.924 E31.07195
G0 F6000 X118.449 Y114.489
G1 F1200 X105.509 Y101.549 E31.68061
G0 F6000 X104.943 Y101.549
G1 F1200 X118.449 Y115.055 E32.31589
G0 F6000 X118.449 Y115.621
G1 F1200 X104.378 Y101.549 E32.97777
G0 F6000 X103.812 Y101.549
G1 F1200 X118.449 Y116.186 E33.66625
G0 F6000 X118.449 Y116.752
G1 F1200 X103.246 Y101.549 E34.38135
G0 F6000 X102.681 Y101.549
G1 F1200 X118.449 Y117.318 E35.12305
G0 F6000 X118.449 Y117.883
G1 F1200 X102.115 Y101.549 E35.89135
G0 F6000 X101.549 Y101.549
G1 F1200 X118.449 Y118.449 E36.68628
G0 F6000 X117.883 Y118.449
G1 F1200 X101.549 Y102.115 E37.45458
G0 F6000 X101.549 Y102.681
G1 F1200 X117.318 Y118.449 E38.19628
G0 F6000 X116.752 Y118.449
G1 F1200 X101.549 Y103.246 E38.91138
G0 F6000 X101.549 Y103.812
G1 F1200 X116.186 Y118.449 E39.59986
G0 F6000 X115.621 Y118.449
G1 F1200 X101.549 Y104.378 E40.26174
G0 F6000 X101.549 Y104.943
G1 F1200 X115.055 Y118.449 E40.89702
G0 F6000 X114.489 Y118.449
G1 F1200 X101.549 Y105.509 E41.50568
G0 F6000 X101.549 Y106.075
G1 F1200 X113.924 Y118.449 E42.08774
G0 F6000 X113.358 Y118.449
G1 F1200 X101.549 Y106.64 E42.6432
G0 F6000 X101.549 Y107.206
G1 F1200 X112.792 Y118.449 E43.17204
G0 F6000 X112.227 Y118.449
G1 F1200 X101.549 Y107.772 E43.67427
G0 F6000 X101.549 Y108.337
G1 F1200 X111.661 Y118.449 E44.14991
G0 F6000 X111.095 Y118.449
G1 F1200 X101.549 Y108.903 E44.59893
G0 F6000 X101.549 Y109.469
G1 F1200 X110.529 Y118.449 E45.02132
G0 F6000 X109.964 Y118.449
G1 F1200 X101.549 Y110.035 E45.41711
G0 F6000 X101.549 Y110.6
G1 F1200 X109.398 Y118.449 E45.7863
G0 F6000 X108.832 Y118.449
G1 F1200 X101.549 Y111.166 E46.12887
G0 F6000 X101.549 Y111.732
G1 F1200 X108.267 Y118.449 E46.44484
G0 F6000 X107.701 Y118.449
G1 F1200 X101.549 Y112.297 E46.73421
G0 F6000 X101.549 Y112.863
G1 F1200 X107.135 Y118.449 E46.99696
G0 F6000 X106.57 Y118.449
G1 F1200 X101.549 Y113.429 E47.23311
G0 F6000 X101.549 Y113.994
G1 F1200 X106.004 Y118.449 E47.44266
G0 F6000 X105.438 Y118.449
G1 F1200 X101.549 Y114.56 E47.62559
G0 F6000 X101.549 Y115.126
G1 F1200 X104.873 Y118.449 E47.78192
G0 F6000 X104.307 Y118.449
G1 F1200 X101.549 Y115.691 E47.91164
G0 F6000 X101.549 Y116.257
G1 F1200 X103.741 Y118.449 E48.01475
G0 F6000 X103.176 Y118.449
G1 F1200 X101.549 Y116.823 E48.09125
G0 F6000 X101.549 Y117.388
G1 F1200 X102.61 Y118.449 E48.14116
G0 F6000 X102.044 Y118.449
G1 F1200 X101.549 Y117.954 E48.16444
G0 F6000 X100.81 Y117.954
G1 F2700 E40.16444
;MESH:NONMESH
G0 F300 X100.81 Y117.954 Z0.36
G0 F6000 X101.182 Y118.818
G0 X119 Y119
;TIME_ELAPSED:84.299420
;LAYER:1
M106 S85
;TYPE:WALL-INNER
;MESH:xyzCalibration_cube.stl
G1 F2700 E48.16444
G1 F1905 X101 Y119 E48.64339
G1 X101 Y101 E49.12233
G1 X119 Y101 E49.60128
G1 X119 Y119 E50.08023
G0 F9390 X119.4 Y119.4
G1 F1905 X100.6 Y119.4 E50.58046
G1 X100.6 Y100.6 E51.08069
G1 X119.4 Y100.6 E51.58092
G1 X119.4 Y119.4 E52.08116
G0 F9390 X119.8 Y119.8
;TYPE:WALL-OUTER
G1 F1950 X100.2 Y119.8 E52.60268
G1 X100.2 Y100.2 E53.12419
G1 X119.8 Y100.2 E53.64571
G1 X119.8 Y119.8 E54.16723
G0 F9390 X119.53 Y119.53
G0 X118.89 Y118.61
G0 X118.61 Y118.61
;TYPE:SKIN
G1 F1905 X101.39 Y118.61 E54.62542
G1 X101.39 Y101.39 E55.08362
G1 X118.61 Y101.39 E55.54181
G1 X118.61 Y118.61 E56
G0 F9390 X118.006 Y118.449
G1 F1905 X118.449 Y118.006 E56.01667
G0 F9390 X118.449 Y117.441
G1 F1905 X117.441 Y118.449 E56.0546
G0 F9390 X116.875 Y118.449
G1 F1905 X118.449 Y116.875 E56.11383
G0 F9390 X118.449 Y116.309
G1 F1905 X116.309 Y118.449 E56.19436
G0 F9390 X115.744 Y118.449
G1 F1905 X118.449 Y115.744 E56.29614
G0 F9390 X118.449 Y115.178
G1 F1905 X115.178 Y118.449 E56.41923
G0 F9390 X114.612 Y118.449
G1 F1905 X118.449 Y114.612 E56.56361
G0 F9390 X118.449 Y114.047
G1 F1905 X114.047 Y118.449 E56.72926
G0 F9390 X113.481 Y118.449
G1 F1905 X118.449 Y113.481 E56.9162
G0 F9390 X118.449 Y112.915
G1 F1905 X112.915 Y118.449 E57.12444
G0 F9390 X112.35 Y118.449
G1 F1905 X118.449 Y112.35 E57.35395
G0 F9390 X118.449 Y111.784
G1 F1905 X111.784 Y118.449 E57.60475
G0 F9390 X111.218 Y118.449
G1 F1905 X118.449 Y111.218 E57.87685
G0 F9390 X118.449 Y110.653
G1 F1905 X110.653 Y118.449 E58.17021
G0 F9390 X110.087 Y118.449
G1 F1905 X118.449 Y110.087 E58.48487
G0 F9390 X118.449 Y109.521
G1 F1905 X109.521 Y118.449 E58.82082
G0 F9390 X108.955 Y118.449
G1 F1905 X118.449 Y108.955 E59.17808
G0 F9390 X118.449 Y108.39
G1 F1905 X108.39 Y118.449 E59.55659
G0 F9390 X107.824 Y118.449
G1 F1905 X118.449 Y107.824 E59.95641
G0 F9390 X118.449 Y107.258
G1 F1905 X107.258 Y118.449 E60.37752
G0 F9390 X106.693 Y118.449
G1 F1905 X118.449 Y106.693 E60.81989
G0 F9390 X118.449 Y106.127
G1 F1905 X106.127 Y118.449 E61.28356
G0 F9390 X105.561 Y118.449
G1 F1905 X118.449 Y105.561 E61.76853
G0 F9390 X118.449 Y104.996
G1 F1905 X104.996 Y118.449 E62.27476
G0 F9390 X104.43 Y118.449
G1 F1905 X118.449 Y104.43 E62.80229
G0 F9390 X118.449 Y103.864
G1 F1905 X103.864 Y118.449 E63.35112
G0 F9390 X103.299 Y118.449
G1 F1905 X118.449 Y103.299 E63.92121
G0 F9390 X118.449 Y102.733
G1 F1905 X102.733 Y118.449 E64.51259
G0 F9390 X102.167 Y118.449
